edition/luts/Warm Highlights.cube
# EdiTogether sample look
LUT_3D_SIZE 5
0.000000 0.000000 0.000000
0.271250 0.000000 0.000000
0.555000 0.000000 0.000000
0.851250 0.000000 0.000000
1.000000 0.000000 0.000000
0.000000 0.250000 0.000000
0.271250 0.250000 0.000000
0.555000 0.250000 0.000000
0.851250 0.250000 0.000000
1.000000 0.250000 0.000000
0.000000 0.500000 0.000000
0.271250 0.500000 0.000000
0.555000 0.500000 0.000000
0.851250 0.500000 0.000000
1.000000 0.500000 0.000000
0.000000 0.750000 0.000000
0.271250 0.750000 0.000000
0.555000 0.750000 0.000000
0.851250 0.750000 0.000000
1.000000 0.750000 0.000000
0.000000 1.000000 0.000000
0.271250 1.000000 0.000000
0.555000 1.000000 0.000000
0.851250 1.000000 0.000000
1.000000 1.000000 0.000000
0.000000 0.000000 0.246250
0.271250 0.000000 0.246250
0.555000 0.000000 0.246250
0.851250 0.000000 0.246250
1.000000 0.000000 0.246250
0.000000 0.250000 0.246250
0.271250 0.250000 0.246250
0.555000 0.250000 0.246250
0.851250 0.250000 0.246250
1.000000 0.250000 0.246250
0.000000 0.500000 0.246250
0.271250 0.500000 0.246250
0.555000 0.500000 0.246250
0.851250 0.500000 0.246250
1.000000 0.500000 0.246250
0.000000 0.750000 0.246250
0.271250 0.750000 0.246250
0.555000 0.750000 0.246250
0.851250 0.750000 0.246250
1.000000 0.750000 0.246250
0.000000 1.000000 0.246250
0.271250 1.000000 0.246250
0.555000 1.000000 0.246250
0.851250 1.000000 0.246250
1.000000 1.000000 0.246250
0.000000 0.000000 0.485000
0.271250 0.000000 0.485000
0.555000 0.000000 0.485000
0.851250 0.000000 0.485000
1.000000 0.000000 0.485000
0.000000 0.250000 0.485000
0.271250 0.250000 0.485000
0.555000 0.250000 0.485000
0.851250 0.250000 0.485000
1.000000 0.250000 0.485000
0.000000 0.500000 0.485000
0.271250 0.500000 0.485000
0.555000 0.500000 0.485000
0.851250 0.500000 0.485000
1.000000 0.500000 0.485000
0.000000 0.750000 0.485000
0.271250 0.750000 0.485000
0.555000 0.750000 0.485000
0.851250 0.750000 0.485000
1.000000 0.750000 0.485000
0.000000 1.000000 0.485000
0.271250 1.000000 0.485000
0.555000 1.000000 0.485000
0.851250 1.000000 0.485000
1.000000 1.000000 0.485000
0.000000 0.000000 0.716250
0.271250 0.000000 0.716250
0.555000 0.000000 0.716250
0.851250 0.000000 0.716250
1.000000 0.000000 0.716250
0.000000 0.250000 0.716250
0.271250 0.250000 0.716250
0.555000 0.250000 0.716250
0.851250 0.250000 0.716250
1.000000 0.250000 0.716250
0.000000 0.500000 0.716250
0.271250 0.500000 0.716250
0.555000 0.500000 0.716250
0.851250 0.500000 0.716250
1.000000 0.500000 0.716250
0.000000 0.750000 0.716250
0.271250 0.750000 0.716250
0.555000 0.750000 0.716250
0.851250 0.750000 0.716250
1.000000 0.750000 0.716250
0.000000 1.000000 0.716250
0.271250 1.000000 0.716250
0.555000 1.000000 0.716250
0.851250 1.000000 0.716250
1.000000 1.000000 0.716250
0.000000 0.000000 0.940000
0.271250 0.000000 0.940000
0.555000 0.000000 0.940000
0.851250 0.000000 0.940000
1.000000 0.000000 0.940000
0.000000 0.250000 0.940000
0.271250 0.250000 0.940000
0.555000 0.250000 0.940000
0.851250 0.250000 0.940000
1.000000 0.250000 0.940000
0.000000 0.500000 0.940000
0.271250 0.500000 0.940000
0.555000 0.500000 0.940000
0.851250 0.500000 0.940000
1.000000 0.500000 0.940000
0.000000 0.750000 0.940000
0.271250 0.750000 0.940000
0.555000 0.750000 0.940000
0.851250 0.750000 0.940000
1.000000 0.750000 0.940000
0.000000 1.000000 0.940000
0.271250 1.000000 0.940000
0.555000 1.000000 0.940000
0.851250 1.000000 0.940000
1.000000 1.000000 0.940000
