edition/luts/Warm Highlights.cube
# EdiTogether sample look
LUT_3D_SIZE 17
0.000000 0.000000 0.000000
0.066641 0.000000 0.000000
0.134063 0.000000 0.000000
0.202266 0.000000 0.000000
0.271250 0.000000 0.000000
0.341016 0.000000 0.000000
0.411563 0.000000 0.000000
0.482891 0.000000 0.000000
0.555000 0.000000 0.000000
0.627891 0.000000 0.000000
0.701563 0.000000 0.000000
0.776016 0.000000 0.000000
0.851250 0.000000 0.000000
0.927266 0.000000 0.000000
1.000000 0.000000 0.000000
1.000000 0.000000 0.000000
1.000000 0.000000 0.000000
0.000000 0.062500 0.000000
0.066641 0.062500 0.000000
0.134063 0.062500 0.000000
0.202266 0.062500 0.000000
0.271250 0.062500 0.000000
0.341016 0.062500 0.000000
0.411563 0.062500 0.000000
0.482891 0.062500 0.000000
0.555000 0.062500 0.000000
0.627891 0.062500 0.000000
0.701563 0.062500 0.000000
0.776016 0.062500 0.000000
0.851250 0.062500 0.000000
0.927266 0.062500 0.000000
1.000000 0.062500 0.000000
1.000000 0.062500 0.000000
1.000000 0.062500 0.000000
0.000000 0.125000 0.000000
0.066641 0.125000 0.000000
0.134063 0.125000 0.000000
0.202266 0.125000 0.000000
0.271250 0.125000 0.000000
0.341016 0.125000 0.000000
0.411563 0.125000 0.000000
0.482891 0.125000 0.000000
0.555000 0.125000 0.000000
0.627891 0.125000 0.000000
0.701563 0.125000 0.000000
0.776016 0.125000 0.000000
0.851250 0.125000 0.000000
0.927266 0.125000 0.000000
1.000000 0.125000 0.000000
1.000000 0.125000 0.000000
1.000000 0.125000 0.000000
0.000000 0.187500 0.000000
0.066641 0.187500 0.000000
0.134063 0.187500 0.000000
0.202266 0.187500 0.000000
0.271250 0.187500 0.000000
0.341016 0.187500 0.000000
0.411563 0.187500 0.000000
0.482891 0.187500 0.000000
0.555000 0.187500 0.000000
0.627891 0.187500 0.000000
0.701563 0.187500 0.000000
0.776016 0.187500 0.000000
0.851250 0.187500 0.000000
0.927266 0.187500 0.000000
1.000000 0.187500 0.000000
1.000000 0.187500 0.000000
1.000000 0.187500 0.000000
0.000000 0.250000 0.000000
0.066641 0.250000 0.000000
0.134063 0.250000 0.000000
0.202266 0.250000 0.000000
0.271250 0.250000 0.000000
0.341016 0.250000 0.000000
0.411563 0.250000 0.000000
0.482891 0.250000 0.000000
0.555000 0.250000 0.000000
0.627891 0.250000 0.000000
0.701563 0.250000 0.000000
0.776016 0.250000 0.000000
0.851250 0.250000 0.000000
0.927266 0.250000 0.000000
1.000000 0.250000 0.000000
1.000000 0.250000 0.000000
1.000000 0.250000 0.000000
0.000000 0.312500 0.000000
0.066641 0.312500 0.000000
0.134063 0.312500 0.000000
0.202266 0.312500 0.000000
0.271250 0.312500 0.000000
0.341016 0.312500 0.000000
0.411563 0.312500 0.000000
0.482891 0.312500 0.000000
0.555000 0.312500 0.000000
0.627891 0.312500 0.000000
0.701563 0.312500 0.000000
0.776016 0.312500 0.000000
0.851250 0.312500 0.000000
0.927266 0.312500 0.000000
1.000000 0.312500 0.000000
1.000000 0.312500 0.000000
1.000000 0.312500 0.000000
0.000000 0.375000 0.000000
0.066641 0.375000 0.000000
0.134063 0.375000 0.000000
0.202266 0.375000 0.000000
0.271250 0.375000 0.000000
0.341016 0.375000 0.000000
0.411563 0.375000 0.000000
0.482891 0.375000 0.000000
0.555000 0.375000 0.000000
0.627891 0.375000 0.000000
0.701563 0.375000 0.000000
0.776016 0.375000 0.000000
0.851250 0.375000 0.000000
0.927266 0.375000 0.000000
1.000000 0.375000 0.000000
1.000000 0.375000 0.000000
1.000000 0.375000 0.000000
0.000000 0.437500 0.000000
0.066641 0.437500 0.000000
0.134063 0.437500 0.000000
0.202266 0.437500 0.000000
0.271250 0.437500 0.000000
0.341016 0.437500 0.000000
0.411563 0.437500 0.000000
0.482891 0.437500 0.000000
0.555000 0.437500 0.000000
0.627891 0.437500 0.000000
0.701563 0.437500 0.000000
0.776016 0.437500 0.000000
0.851250 0.437500 0.000000
0.927266 0.437500 0.000000
1.000000 0.437500 0.000000
1.000000 0.437500 0.000000
1.000000 0.437500 0.000000
0.000000 0.500000 0.000000
0.066641 0.500000 0.000000
0.134063 0.500000 0.000000
0.202266 0.500000 0.000000
0.271250 0.500000 0.000000
0.341016 0.500000 0.000000
0.411563 0.500000 0.000000
0.482891 0.500000 0.000000
0.555000 0.500000 0.000000
0.627891 0.500000 0.000000
0.701563 0.500000 0.000000
0.776016 0.500000 0.000000
0.851250 0.500000 0.000000
0.927266 0.500000 0.000000
1.000000 0.500000 0.000000
1.000000 0.500000 0.000000
1.000000 0.500000 0.000000
0.000000 0.562500 0.000000
0.066641 0.562500 0.000000
0.134063 0.562500 0.000000
0.202266 0.562500 0.000000
0.271250 0.562500 0.000000
0.341016 0.562500 0.000000
0.411563 0.562500 0.000000
0.482891 0.562500 0.000000
0.555000 0.562500 0.000000
0.627891 0.562500 0.000000
0.701563 0.562500 0.000000
0.776016 0.562500 0.000000
0.851250 0.562500 0.000000
0.927266 0.562500 0.000000
1.000000 0.562500 0.000000
1.000000 0.562500 0.000000
1.000000 0.562500 0.000000
0.000000 0.625000 0.000000
0.066641 0.625000 0.000000
0.134063 0.625000 0.000000
0.202266 0.625000 0.000000
0.271250 0.625000 0.000000
0.341016 0.625000 0.000000
0.411563 0.625000 0.000000
0.482891 0.625000 0.000000
0.555000 0.625000 0.000000
0.627891 0.625000 0.000000
0.701563 0.625000 0.000000
0.776016 0.625000 0.000000
0.851250 0.625000 0.000000
0.927266 0.625000 0.000000
1.000000 0.625000 0.000000
1.000000 0.625000 0.000000
1.000000 0.625000 0.000000
0.000000 0.687500 0.000000
0.066641 0.687500 0.000000
0.134063 0.687500 0.000000
0.202266 0.687500 0.000000
0.271250 0.687500 0.000000
0.341016 0.687500 0.000000
0.411563 0.687500 0.000000
0.482891 0.687500 0.000000
0.555000 0.687500 0.000000
0.627891 0.687500 0.000000
0.701563 0.687500 0.000000
0.776016 0.687500 0.000000
0.851250 0.687500 0.000000
0.927266 0.687500 0.000000
1.000000 0.687500 0.000000
1.000000 0.687500 0.000000
1.000000 0.687500 0.000000
0.000000 0.750000 0.000000
0.066641 0.750000 0.000000
0.134063 0.750000 0.000000
0.202266 0.750000 0.000000
0.271250 0.750000 0.000000
0.341016 0.750000 0.000000
0.411563 0.750000 0.000000
0.482891 0.750000 0.000000
0.555000 0.750000 0.000000
0.627891 0.750000 0.000000
0.701563 0.750000 0.000000
0.776016 0.750000 0.000000
0.851250 0.750000 0.000000
0.927266 0.750000 0.000000
1.000000 0.750000 0.000000
1.000000 0.750000 0.000000
1.000000 0.750000 0.000000
0.000000 0.812500 0.000000
0.066641 0.812500 0.000000
0.134063 0.812500 0.000000
0.202266 0.812500 0.000000
0.271250 0.812500 0.000000
0.341016 0.812500 0.000000
0.411563 0.812500 0.000000
0.482891 0.812500 0.000000
0.555000 0.812500 0.000000
0.627891 0.812500 0.000000
0.701563 0.812500 0.000000
0.776016 0.812500 0.000000
0.851250 0.812500 0.000000
0.927266 0.812500 0.000000
1.000000 0.812500 0.000000
1.000000 0.812500 0.000000
1.000000 0.812500 0.000000
0.000000 0.875000 0.000000
0.066641 0.875000 0.000000
0.134063 0.875000 0.000000
0.202266 0.875000 0.000000
0.271250 0.875000 0.000000
0.341016 0.875000 0.000000
0.411563 0.875000 0.000000
0.482891 0.875000 0.000000
0.555000 0.875000 0.000000
0.627891 0.875000 0.000000
0.701563 0.875000 0.000000
0.776016 0.875000 0.000000
0.851250 0.875000 0.000000
0.927266 0.875000 0.000000
1.000000 0.875000 0.000000
1.000000 0.875000 0.000000
1.000000 0.875000 0.000000
0.000000 0.937500 0.000000
0.066641 0.937500 0.000000
0.134063 0.937500 0.000000
0.202266 0.937500 0.000000
0.271250 0.937500 0.000000
0.341016 0.937500 0.000000
0.411563 0.937500 0.000000
0.482891 0.937500 0.000000
0.555000 0.937500 0.000000
0.627891 0.937500 0.000000
0.701563 0.937500 0.000000
0.776016 0.937500 0.000000
0.851250 0.937500 0.000000
0.927266 0.937500 0.000000
1.000000 0.937500 0.000000
1.000000 0.937500 0.000000
1.000000 0.937500 0.000000
0.000000 1.000000 0.000000
0.066641 1.000000 0.000000
0.134063 1.000000 0.000000
0.202266 1.000000 0.000000
0.271250 1.000000 0.000000
0.341016 1.000000 0.000000
0.411563 1.000000 0.000000
0.482891 1.000000 0.000000
0.555000 1.000000 0.000000
0.627891 1.000000 0.000000
0.701563 1.000000 0.000000
0.776016 1.000000 0.000000
0.851250 1.000000 0.000000
0.927266 1.000000 0.000000
1.000000 1.000000 0.000000
1.000000 1.000000 0.000000
1.000000 1.000000 0.000000
0.000000 0.000000 0.062266
0.066641 0.000000 0.062266
0.134063 0.000000 0.062266
0.202266 0.000000 0.062266
0.271250 0.000000 0.062266
0.341016 0.000000 0.062266
0.411563 0.000000 0.062266
0.482891 0.000000 0.062266
0.555000 0.000000 0.062266
0.627891 0.000000 0.062266
0.701563 0.000000 0.062266
0.776016 0.000000 0.062266
0.851250 0.000000 0.062266
0.927266 0.000000 0.062266
1.000000 0.000000 0.062266
1.000000 0.000000 0.062266
1.000000 0.000000 0.062266
0.000000 0.062500 0.062266
0.066641 0.062500 0.062266
0.134063 0.062500 0.062266
0.202266 0.062500 0.062266
0.271250 0.062500 0.062266
0.341016 0.062500 0.062266
0.411563 0.062500 0.062266
0.482891 0.062500 0.062266
0.555000 0.062500 0.062266
0.627891 0.062500 0.062266
0.701563 0.062500 0.062266
0.776016 0.062500 0.062266
0.851250 0.062500 0.062266
0.927266 0.062500 0.062266
1.000000 0.062500 0.062266
1.000000 0.062500 0.062266
1.000000 0.062500 0.062266
0.000000 0.125000 0.062266
0.066641 0.125000 0.062266
0.134063 0.125000 0.062266
0.202266 0.125000 0.062266
0.271250 0.125000 0.062266
0.341016 0.125000 0.062266
0.411563 0.125000 0.062266
0.482891 0.125000 0.062266
0.555000 0.125000 0.062266
0.627891 0.125000 0.062266
0.701563 0.125000 0.062266
0.776016 0.125000 0.062266
0.851250 0.125000 0.062266
0.927266 0.125000 0.062266
1.000000 0.125000 0.062266
1.000000 0.125000 0.062266
1.000000 0.125000 0.062266
0.000000 0.187500 0.062266
0.066641 0.187500 0.062266
0.134063 0.187500 0.062266
0.202266 0.187500 0.062266
0.271250 0.187500 0.062266
0.341016 0.187500 0.062266
0.411563 0.187500 0.062266
0.482891 0.187500 0.062266
0.555000 0.187500 0.062266
0.627891 0.187500 0.062266
0.701563 0.187500 0.062266
0.776016 0.187500 0.062266
0.851250 0.187500 0.062266
0.927266 0.187500 0.062266
1.000000 0.187500 0.062266
1.000000 0.187500 0.062266
1.000000 0.187500 0.062266
0.000000 0.250000 0.062266
0.066641 0.250000 0.062266
0.134063 0.250000 0.062266
0.202266 0.250000 0.062266
0.271250 0.250000 0.062266
0.341016 0.250000 0.062266
0.411563 0.250000 0.062266
0.482891 0.250000 0.062266
0.555000 0.250000 0.062266
0.627891 0.250000 0.062266
0.701563 0.250000 0.062266
0.776016 0.250000 0.062266
0.851250 0.250000 0.062266
0.927266 0.250000 0.062266
1.000000 0.250000 0.062266
1.000000 0.250000 0.062266
1.000000 0.250000 0.062266
0.000000 0.312500 0.062266
0.066641 0.312500 0.062266
0.134063 0.312500 0.062266
0.202266 0.312500 0.062266
0.271250 0.312500 0.062266
0.341016 0.312500 0.062266
0.411563 0.312500 0.062266
0.482891 0.312500 0.062266
0.555000 0.312500 0.062266
0.627891 0.312500 0.062266
0.701563 0.312500 0.062266
0.776016 0.312500 0.062266
0.851250 0.312500 0.062266
0.927266 0.312500 0.062266
1.000000 0.312500 0.062266
1.000000 0.312500 0.062266
1.000000 0.312500 0.062266
0.000000 0.375000 0.062266
0.066641 0.375000 0.062266
0.134063 0.375000 0.062266
0.202266 0.375000 0.062266
0.271250 0.375000 0.062266
0.341016 0.375000 0.062266
0.411563 0.375000 0.062266
0.482891 0.375000 0.062266
0.555000 0.375000 0.062266
0.627891 0.375000 0.062266
0.701563 0.375000 0.062266
0.776016 0.375000 0.062266
0.851250 0.375000 0.062266
0.927266 0.375000 0.062266
1.000000 0.375000 0.062266
1.000000 0.375000 0.062266
1.000000 0.375000 0.062266
0.000000 0.437500 0.062266
0.066641 0.437500 0.062266
0.134063 0.437500 0.062266
0.202266 0.437500 0.062266
0.271250 0.437500 0.062266
0.341016 0.437500 0.062266
0.411563 0.437500 0.062266
0.482891 0.437500 0.062266
0.555000 0.437500 0.062266
0.627891 0.437500 0.062266
0.701563 0.437500 0.062266
0.776016 0.437500 0.062266
0.851250 0.437500 0.062266
0.927266 0.437500 0.062266
1.000000 0.437500 0.062266
1.000000 0.437500 0.062266
1.000000 0.437500 0.062266
0.000000 0.500000 0.062266
0.066641 0.500000 0.062266
0.134063 0.500000 0.062266
0.202266 0.500000 0.062266
0.271250 0.500000 0.062266
0.341016 0.500000 0.062266
0.411563 0.500000 0.062266
0.482891 0.500000 0.062266
0.555000 0.500000 0.062266
0.627891 0.500000 0.062266
0.701563 0.500000 0.062266
0.776016 0.500000 0.062266
0.851250 0.500000 0.062266
0.927266 0.500000 0.062266
1.000000 0.500000 0.062266
1.000000 0.500000 0.062266
1.000000 0.500000 0.062266
0.000000 0.562500 0.062266
0.066641 0.562500 0.062266
0.134063 0.562500 0.062266
0.202266 0.562500 0.062266
0.271250 0.562500 0.062266
0.341016 0.562500 0.062266
0.411563 0.562500 0.062266
0.482891 0.562500 0.062266
0.555000 0.562500 0.062266
0.627891 0.562500 0.062266
0.701563 0.562500 0.062266
0.776016 0.562500 0.062266
0.851250 0.562500 0.062266
0.927266 0.562500 0.062266
1.000000 0.562500 0.062266
1.000000 0.562500 0.062266
1.000000 0.562500 0.062266
0.000000 0.625000 0.062266
0.066641 0.625000 0.062266
0.134063 0.625000 0.062266
0.202266 0.625000 0.062266
0.271250 0.625000 0.062266
0.341016 0.625000 0.062266
0.411563 0.625000 0.062266
0.482891 0.625000 0.062266
0.555000 0.625000 0.062266
0.627891 0.625000 0.062266
0.701563 0.625000 0.062266
0.776016 0.625000 0.062266
0.851250 0.625000 0.062266
0.927266 0.625000 0.062266
1.000000 0.625000 0.062266
1.000000 0.625000 0.062266
1.000000 0.625000 0.062266
0.000000 0.687500 0.062266
0.066641 0.687500 0.062266
0.134063 0.687500 0.062266
0.202266 0.687500 0.062266
0.271250 0.687500 0.062266
0.341016 0.687500 0.062266
0.411563 0.687500 0.062266
0.482891 0.687500 0.062266
0.555000 0.687500 0.062266
0.627891 0.687500 0.062266
0.701563 0.687500 0.062266
0.776016 0.687500 0.062266
0.851250 0.687500 0.062266
0.927266 0.687500 0.062266
1.000000 0.687500 0.062266
1.000000 0.687500 0.062266
1.000000 0.687500 0.062266
0.000000 0.750000 0.062266
0.066641 0.750000 0.062266
0.134063 0.750000 0.062266
0.202266 0.750000 0.062266
0.271250 0.750000 0.062266
0.341016 0.750000 0.062266
0.411563 0.750000 0.062266
0.482891 0.750000 0.062266
0.555000 0.750000 0.062266
0.627891 0.750000 0.062266
0.701563 0.750000 0.062266
0.776016 0.750000 0.062266
0.851250 0.750000 0.062266
0.927266 0.750000 0.062266
1.000000 0.750000 0.062266
1.000000 0.750000 0.062266
1.000000 0.750000 0.062266
0.000000 0.812500 0.062266
0.066641 0.812500 0.062266
0.134063 0.812500 0.062266
0.202266 0.812500 0.062266
0.271250 0.812500 0.062266
0.341016 0.812500 0.062266
0.411563 0.812500 0.062266
0.482891 0.812500 0.062266
0.555000 0.812500 0.062266
0.627891 0.812500 0.062266
0.701563 0.812500 0.062266
0.776016 0.812500 0.062266
0.851250 0.812500 0.062266
0.927266 0.812500 0.062266
1.000000 0.812500 0.062266
1.000000 0.812500 0.062266
1.000000 0.812500 0.062266
0.000000 0.875000 0.062266
0.066641 0.875000 0.062266
0.134063 0.875000 0.062266
0.202266 0.875000 0.062266
0.271250 0.875000 0.062266
0.341016 0.875000 0.062266
0.411563 0.875000 0.062266
0.482891 0.875000 0.062266
0.555000 0.875000 0.062266
0.627891 0.875000 0.062266
0.701563 0.875000 0.062266
0.776016 0.875000 0.062266
0.851250 0.875000 0.062266
0.927266 0.875000 0.062266
1.000000 0.875000 0.062266
1.000000 0.875000 0.062266
1.000000 0.875000 0.062266
0.000000 0.937500 0.062266
0.066641 0.937500 0.062266
0.134063 0.937500 0.062266
0.202266 0.937500 0.062266
0.271250 0.937500 0.062266
0.341016 0.937500 0.062266
0.411563 0.937500 0.062266
0.482891 0.937500 0.062266
0.555000 0.937500 0.062266
0.627891 0.937500 0.062266
0.701563 0.937500 0.062266
0.776016 0.937500 0.062266
0.851250 0.937500 0.062266
0.927266 0.937500 0.062266
1.000000 0.937500 0.062266
1.000000 0.937500 0.062266
1.000000 0.937500 0.062266
0.000000 1.000000 0.062266
0.066641 1.000000 0.062266
0.134063 1.000000 0.062266
0.202266 1.000000 0.062266
0.271250 1.000000 0.062266
0.341016 1.000000 0.062266
0.411563 1.000000 0.062266
0.482891 1.000000 0.062266
0.555000 1.000000 0.062266
0.627891 1.000000 0.062266
0.701563 1.000000 0.062266
0.776016 1.000000 0.062266
0.851250 1.000000 0.062266
0.927266 1.000000 0.062266
1.000000 1.000000 0.062266
1.000000 1.000000 0.062266
1.000000 1.000000 0.062266
0.000000 0.000000 0.124062
0.066641 0.000000 0.124062
0.134063 0.000000 0.124062
0.202266 0.000000 0.124062
0.271250 0.000000 0.124062
0.341016 0.000000 0.124062
0.411563 0.000000 0.124062
0.482891 0.000000 0.124062
0.555000 0.000000 0.124062
0.627891 0.000000 0.124062
0.701563 0.000000 0.124062
0.776016 0.000000 0.124062
0.851250 0.000000 0.124062
0.927266 0.000000 0.124062
1.000000 0.000000 0.124062
1.000000 0.000000 0.124062
1.000000 0.000000 0.124062
0.000000 0.062500 0.124062
0.066641 0.062500 0.124062
0.134063 0.062500 0.124062
0.202266 0.062500 0.124062
0.271250 0.062500 0.124062
0.341016 0.062500 0.124062
0.411563 0.062500 0.124062
0.482891 0.062500 0.124062
0.555000 0.062500 0.124062
0.627891 0.062500 0.124062
0.701563 0.062500 0.124062
0.776016 0.062500 0.124062
0.851250 0.062500 0.124062
0.927266 0.062500 0.124062
1.000000 0.062500 0.124062
1.000000 0.062500 0.124062
1.000000 0.062500 0.124062
0.000000 0.125000 0.124062
0.066641 0.125000 0.124062
0.134063 0.125000 0.124062
0.202266 0.125000 0.124062
0.271250 0.125000 0.124062
0.341016 0.125000 0.124062
0.411563 0.125000 0.124062
0.482891 0.125000 0.124062
0.555000 0.125000 0.124062
0.627891 0.125000 0.124062
0.701563 0.125000 0.124062
0.776016 0.125000 0.124062
0.851250 0.125000 0.124062
0.927266 0.125000 0.124062
1.000000 0.125000 0.124062
1.000000 0.125000 0.124062
1.000000 0.125000 0.124062
0.000000 0.187500 0.124062
0.066641 0.187500 0.124062
0.134063 0.187500 0.124062
0.202266 0.187500 0.124062
0.271250 0.187500 0.124062
0.341016 0.187500 0.124062
0.411563 0.187500 0.124062
0.482891 0.187500 0.124062
0.555000 0.187500 0.124062
0.627891 0.187500 0.124062
0.701563 0.187500 0.124062
0.776016 0.187500 0.124062
0.851250 0.187500 0.124062
0.927266 0.187500 0.124062
1.000000 0.187500 0.124062
1.000000 0.187500 0.124062
1.000000 0.187500 0.124062
0.000000 0.250000 0.124062
0.066641 0.250000 0.124062
0.134063 0.250000 0.124062
0.202266 0.250000 0.124062
0.271250 0.250000 0.124062
0.341016 0.250000 0.124062
0.411563 0.250000 0.124062
0.482891 0.250000 0.124062
0.555000 0.250000 0.124062
0.627891 0.250000 0.124062
0.701563 0.250000 0.124062
0.776016 0.250000 0.124062
0.851250 0.250000 0.124062
0.927266 0.250000 0.124062
1.000000 0.250000 0.124062
1.000000 0.250000 0.124062
1.000000 0.250000 0.124062
0.000000 0.312500 0.124062
0.066641 0.312500 0.124062
0.134063 0.312500 0.124062
0.202266 0.312500 0.124062
0.271250 0.312500 0.124062
0.341016 0.312500 0.124062
0.411563 0.312500 0.124062
0.482891 0.312500 0.124062
0.555000 0.312500 0.124062
0.627891 0.312500 0.124062
0.701563 0.312500 0.124062
0.776016 0.312500 0.124062
0.851250 0.312500 0.124062
0.927266 0.312500 0.124062
1.000000 0.312500 0.124062
1.000000 0.312500 0.124062
1.000000 0.312500 0.124062
0.000000 0.375000 0.124062
0.066641 0.375000 0.124062
0.134063 0.375000 0.124062
0.202266 0.375000 0.124062
0.271250 0.375000 0.124062
0.341016 0.375000 0.124062
0.411563 0.375000 0.124062
0.482891 0.375000 0.124062
0.555000 0.375000 0.124062
0.627891 0.375000 0.124062
0.701563 0.375000 0.124062
0.776016 0.375000 0.124062
0.851250 0.375000 0.124062
0.927266 0.375000 0.124062
1.000000 0.375000 0.124062
1.000000 0.375000 0.124062
1.000000 0.375000 0.124062
0.000000 0.437500 0.124062
0.066641 0.437500 0.124062
0.134063 0.437500 0.124062
0.202266 0.437500 0.124062
0.271250 0.437500 0.124062
0.341016 0.437500 0.124062
0.411563 0.437500 0.124062
0.482891 0.437500 0.124062
0.555000 0.437500 0.124062
0.627891 0.437500 0.124062
0.701563 0.437500 0.124062
0.776016 0.437500 0.124062
0.851250 0.437500 0.124062
0.927266 0.437500 0.124062
1.000000 0.437500 0.124062
1.000000 0.437500 0.124062
1.000000 0.437500 0.124062
0.000000 0.500000 0.124062
0.066641 0.500000 0.124062
0.134063 0.500000 0.124062
0.202266 0.500000 0.124062
0.271250 0.500000 0.124062
0.341016 0.500000 0.124062
0.411563 0.500000 0.124062
0.482891 0.500000 0.124062
0.555000 0.500000 0.124062
0.627891 0.500000 0.124062
0.701563 0.500000 0.124062
0.776016 0.500000 0.124062
0.851250 0.500000 0.124062
0.927266 0.500000 0.124062
1.000000 0.500000 0.124062
1.000000 0.500000 0.124062
1.000000 0.500000 0.124062
0.000000 0.562500 0.124062
0.066641 0.562500 0.124062
0.134063 0.562500 0.124062
0.202266 0.562500 0.124062
0.271250 0.562500 0.124062
0.341016 0.562500 0.124062
0.411563 0.562500 0.124062
0.482891 0.562500 0.124062
0.555000 0.562500 0.124062
0.627891 0.562500 0.124062
0.701563 0.562500 0.124062
0.776016 0.562500 0.124062
0.851250 0.562500 0.124062
0.927266 0.562500 0.124062
1.000000 0.562500 0.124062
1.000000 0.562500 0.124062
1.000000 0.562500 0.124062
0.000000 0.625000 0.124062
0.066641 0.625000 0.124062
0.134063 0.625000 0.124062
0.202266 0.625000 0.124062
0.271250 0.625000 0.124062
0.341016 0.625000 0.124062
0.411563 0.625000 0.124062
0.482891 0.625000 0.124062
0.555000 0.625000 0.124062
0.627891 0.625000 0.124062
0.701563 0.625000 0.124062
0.776016 0.625000 0.124062
0.851250 0.625000 0.124062
0.927266 0.625000 0.124062
1.000000 0.625000 0.124062
1.000000 0.625000 0.124062
1.000000 0.625000 0.124062
0.000000 0.687500 0.124062
0.066641 0.687500 0.124062
0.134063 0.687500 0.124062
0.202266 0.687500 0.124062
0.271250 0.687500 0.124062
0.341016 0.687500 0.124062
0.411563 0.687500 0.124062
0.482891 0.687500 0.124062
0.555000 0.687500 0.124062
0.627891 0.687500 0.124062
0.701563 0.687500 0.124062
0.776016 0.687500 0.124062
0.851250 0.687500 0.124062
0.927266 0.687500 0.124062
1.000000 0.687500 0.124062
1.000000 0.687500 0.124062
1.000000 0.687500 0.124062
0.000000 0.750000 0.124062
0.066641 0.750000 0.124062
0.134063 0.750000 0.124062
0.202266 0.750000 0.124062
0.271250 0.750000 0.124062
0.341016 0.750000 0.124062
0.411563 0.750000 0.124062
0.482891 0.750000 0.124062
0.555000 0.750000 0.124062
0.627891 0.750000 0.124062
0.701563 0.750000 0.124062
0.776016 0.750000 0.124062
0.851250 0.750000 0.124062
0.927266 0.750000 0.124062
1.000000 0.750000 0.124062
1.000000 0.750000 0.124062
1.000000 0.750000 0.124062
0.000000 0.812500 0.124062
0.066641 0.812500 0.124062
0.134063 0.812500 0.124062
0.202266 0.812500 0.124062
0.271250 0.812500 0.124062
0.341016 0.812500 0.124062
0.411563 0.812500 0.124062
0.482891 0.812500 0.124062
0.555000 0.812500 0.124062
0.627891 0.812500 0.124062
0.701563 0.812500 0.124062
0.776016 0.812500 0.124062
0.851250 0.812500 0.124062
0.927266 0.812500 0.124062
1.000000 0.812500 0.124062
1.000000 0.812500 0.124062
1.000000 0.812500 0.124062
0.000000 0.875000 0.124062
0.066641 0.875000 0.124062
0.134063 0.875000 0.124062
0.202266 0.875000 0.124062
0.271250 0.875000 0.124062
0.341016 0.875000 0.124062
0.411563 0.875000 0.124062
0.482891 0.875000 0.124062
0.555000 0.875000 0.124062
0.627891 0.875000 0.124062
0.701563 0.875000 0.124062
0.776016 0.875000 0.124062
0.851250 0.875000 0.124062
0.927266 0.875000 0.124062
1.000000 0.875000 0.124062
1.000000 0.875000 0.124062
1.000000 0.875000 0.124062
0.000000 0.937500 0.124062
0.066641 0.937500 0.124062
0.134063 0.937500 0.124062
0.202266 0.937500 0.124062
0.271250 0.937500 0.124062
0.341016 0.937500 0.124062
0.411563 0.937500 0.124062
0.482891 0.937500 0.124062
0.555000 0.937500 0.124062
0.627891 0.937500 0.124062
0.701563 0.937500 0.124062
0.776016 0.937500 0.124062
0.851250 0.937500 0.124062
0.927266 0.937500 0.124062
1.000000 0.937500 0.124062
1.000000 0.937500 0.124062
1.000000 0.937500 0.124062
0.000000 1.000000 0.124062
0.066641 1.000000 0.124062
0.134063 1.000000 0.124062
0.202266 1.000000 0.124062
0.271250 1.000000 0.124062
0.341016 1.000000 0.124062
0.411563 1.000000 0.124062
0.482891 1.000000 0.124062
0.555000 1.000000 0.124062
0.627891 1.000000 0.124062
0.701563 1.000000 0.124062
0.776016 1.000000 0.124062
0.851250 1.000000 0.124062
0.927266 1.000000 0.124062
1.000000 1.000000 0.124062
1.000000 1.000000 0.124062
1.000000 1.000000 0.124062
0.000000 0.000000 0.185391
0.066641 0.000000 0.185391
0.134063 0.000000 0.185391
0.202266 0.000000 0.185391
0.271250 0.000000 0.185391
0.341016 0.000000 0.185391
0.411563 0.000000 0.185391
0.482891 0.000000 0.185391
0.555000 0.000000 0.185391
0.627891 0.000000 0.185391
0.701563 0.000000 0.185391
0.776016 0.000000 0.185391
0.851250 0.000000 0.185391
0.927266 0.000000 0.185391
1.000000 0.000000 0.185391
1.000000 0.000000 0.185391
1.000000 0.000000 0.185391
0.000000 0.062500 0.185391
0.066641 0.062500 0.185391
0.134063 0.062500 0.185391
