edition/luts/Warm Highlights.cube
# EdiTogether sample look
LUT_3D_SIZE 9
0.000000 0.000000 0.000000
0.134063 0.000000 0.000000
0.271250 0.000000 0.000000
0.411563 0.000000 0.000000
0.555000 0.000000 0.000000
0.701563 0.000000 0.000000
0.851250 0.000000 0.000000
1.000000 0.000000 0.000000
1.000000 0.000000 0.000000
0.000000 0.125000 0.000000
0.134063 0.125000 0.000000
0.271250 0.125000 0.000000
0.411563 0.125000 0.000000
0.555000 0.125000 0.000000
0.701563 0.125000 0.000000
0.851250 0.125000 0.000000
1.000000 0.125000 0.000000
1.000000 0.125000 0.000000
0.000000 0.250000 0.000000
0.134063 0.250000 0.000000
0.271250 0.250000 0.000000
0.411563 0.250000 0.000000
0.555000 0.250000 0.000000
0.701563 0.250000 0.000000
0.851250 0.250000 0.000000
1.000000 0.250000 0.000000
1.000000 0.250000 0.000000
0.000000 0.375000 0.000000
0.134063 0.375000 0.000000
0.271250 0.375000 0.000000
0.411563 0.375000 0.000000
0.555000 0.375000 0.000000
0.701563 0.375000 0.000000
0.851250 0.375000 0.000000
1.000000 0.375000 0.000000
1.000000 0.375000 0.000000
0.000000 0.500000 0.000000
0.134063 0.500000 0.000000
0.271250 0.500000 0.000000
0.411563 0.500000 0.000000
0.555000 0.500000 0.000000
0.701563 0.500000 0.000000
0.851250 0.500000 0.000000
1.000000 0.500000 0.000000
1.000000 0.500000 0.000000
0.000000 0.625000 0.000000
0.134063 0.625000 0.000000
0.271250 0.625000 0.000000
0.411563 0.625000 0.000000
0.555000 0.625000 0.000000
0.701563 0.625000 0.000000
0.851250 0.625000 0.000000
1.000000 0.625000 0.000000
1.000000 0.625000 0.000000
0.000000 0.750000 0.000000
0.134063 0.750000 0.000000
0.271250 0.750000 0.000000
0.411563 0.750000 0.000000
0.555000 0.750000 0.000000
0.701563 0.750000 0.000000
0.851250 0.750000 0.000000
1.000000 0.750000 0.000000
1.000000 0.750000 0.000000
0.000000 0.875000 0.000000
0.134063 0.875000 0.000000
0.271250 0.875000 0.000000
0.411563 0.875000 0.000000
0.555000 0.875000 0.000000
0.701563 0.875000 0.000000
0.851250 0.875000 0.000000
1.000000 0.875000 0.000000
1.000000 0.875000 0.000000
0.000000 1.000000 0.000000
0.134063 1.000000 0.000000
0.271250 1.000000 0.000000
0.411563 1.000000 0.000000
0.555000 1.000000 0.000000
0.701563 1.000000 0.000000
0.851250 1.000000 0.000000
1.000000 1.000000 0.000000
1.000000 1.000000 0.000000
0.000000 0.000000 0.124062
0.134063 0.000000 0.124062
0.271250 0.000000 0.124062
0.411563 0.000000 0.124062
0.555000 0.000000 0.124062
0.701563 0.000000 0.124062
0.851250 0.000000 0.124062
1.000000 0.000000 0.124062
1.000000 0.000000 0.124062
0.000000 0.125000 0.124062
0.134063 0.125000 0.124062
0.271250 0.125000 0.124062
0.411563 0.125000 0.124062
0.555000 0.125000 0.124062
0.701563 0.125000 0.124062
0.851250 0.125000 0.124062
1.000000 0.125000 0.124062
1.000000 0.125000 0.124062
0.000000 0.250000 0.124062
0.134063 0.250000 0.124062
0.271250 0.250000 0.124062
0.411563 0.250000 0.124062
0.555000 0.250000 0.124062
0.701563 0.250000 0.124062
0.851250 0.250000 0.124062
1.000000 0.250000 0.124062
1.000000 0.250000 0.124062
0.000000 0.375000 0.124062
0.134063 0.375000 0.124062
0.271250 0.375000 0.124062
0.411563 0.375000 0.124062
0.555000 0.375000 0.124062
0.701563 0.375000 0.124062
0.851250 0.375000 0.124062
1.000000 0.375000 0.124062
1.000000 0.375000 0.124062
0.000000 0.500000 0.124062
0.134063 0.500000 0.124062
0.271250 0.500000 0.124062
0.411563 0.500000 0.124062
0.555000 0.500000 0.124062
0.701563 0.500000 0.124062
0.851250 0.500000 0.124062
1.000000 0.500000 0.124062
1.000000 0.500000 0.124062
0.000000 0.625000 0.124062
0.134063 0.625000 0.124062
0.271250 0.625000 0.124062
0.411563 0.625000 0.124062
0.555000 0.625000 0.124062
0.701563 0.625000 0.124062
0.851250 0.625000 0.124062
1.000000 0.625000 0.124062
1.000000 0.625000 0.124062
0.000000 0.750000 0.124062
0.134063 0.750000 0.124062
0.271250 0.750000 0.124062
0.411563 0.750000 0.124062
0.555000 0.750000 0.124062
0.701563 0.750000 0.124062
0.851250 0.750000 0.124062
1.000000 0.750000 0.124062
1.000000 0.750000 0.124062
0.000000 0.875000 0.124062
0.134063 0.875000 0.124062
0.271250 0.875000 0.124062
0.411563 0.875000 0.124062
0.555000 0.875000 0.124062
0.701563 0.875000 0.124062
0.851250 0.875000 0.124062
1.000000 0.875000 0.124062
1.000000 0.875000 0.124062
0.000000 1.000000 0.124062
0.134063 1.000000 0.124062
0.271250 1.000000 0.124062
0.411563 1.000000 0.124062
0.555000 1.000000 0.124062
0.701563 1.000000 0.124062
0.851250 1.000000 0.124062
1.000000 1.000000 0.124062
1.000000 1.000000 0.124062
0.000000 0.000000 0.246250
0.134063 0.000000 0.246250
0.271250 0.000000 0.246250
0.411563 0.000000 0.246250
0.555000 0.000000 0.246250
0.701563 0.000000 0.246250
0.851250 0.000000 0.246250
1.000000 0.000000 0.246250
1.000000 0.000000 0.246250
0.000000 0.125000 0.246250
0.134063 0.125000 0.246250
0.271250 0.125000 0.246250
0.411563 0.125000 0.246250
0.555000 0.125000 0.246250
0.701563 0.125000 0.246250
0.851250 0.125000 0.246250
1.000000 0.125000 0.246250
1.000000 0.125000 0.246250
0.000000 0.250000 0.246250
0.134063 0.250000 0.246250
0.271250 0.250000 0.246250
0.411563 0.250000 0.246250
0.555000 0.250000 0.246250
0.701563 0.250000 0.246250
0.851250 0.250000 0.246250
1.000000 0.250000 0.246250
1.000000 0.250000 0.246250
0.000000 0.375000 0.246250
0.134063 0.375000 0.246250
0.271250 0.375000 0.246250
0.411563 0.375000 0.246250
0.555000 0.375000 0.246250
0.701563 0.375000 0.246250
0.851250 0.375000 0.246250
1.000000 0.375000 0.246250
1.000000 0.375000 0.246250
0.000000 0.500000 0.246250
0.134063 0.500000 0.246250
0.271250 0.500000 0.246250
0.411563 0.500000 0.246250
0.555000 0.500000 0.246250
0.701563 0.500000 0.246250
0.851250 0.500000 0.246250
1.000000 0.500000 0.246250
1.000000 0.500000 0.246250
0.000000 0.625000 0.246250
0.134063 0.625000 0.246250
0.271250 0.625000 0.246250
0.411563 0.625000 0.246250
0.555000 0.625000 0.246250
0.701563 0.625000 0.246250
0.851250 0.625000 0.246250
1.000000 0.625000 0.246250
1.000000 0.625000 0.246250
0.000000 0.750000 0.246250
0.134063 0.750000 0.246250
0.271250 0.750000 0.246250
0.411563 0.750000 0.246250
0.555000 0.750000 0.246250
0.701563 0.750000 0.246250
0.851250 0.750000 0.246250
1.000000 0.750000 0.246250
1.000000 0.750000 0.246250
0.000000 0.875000 0.246250
0.134063 0.875000 0.246250
0.271250 0.875000 0.246250
0.411563 0.875000 0.246250
0.555000 0.875000 0.246250
0.701563 0.875000 0.246250
0.851250 0.875000 0.246250
1.000000 0.875000 0.246250
1.000000 0.875000 0.246250
0.000000 1.000000 0.246250
0.134063 1.000000 0.246250
0.271250 1.000000 0.246250
0.411563 1.000000 0.246250
0.555000 1.000000 0.246250
0.701563 1.000000 0.246250
0.851250 1.000000 0.246250
1.000000 1.000000 0.246250
1.000000 1.000000 0.246250
0.000000 0.000000 0.366562
0.134063 0.000000 0.366562
0.271250 0.000000 0.366562
0.411563 0.000000 0.366562
0.555000 0.000000 0.366562
0.701563 0.000000 0.366562
0.851250 0.000000 0.366562
1.000000 0.000000 0.366562
1.000000 0.000000 0.366562
0.000000 0.125000 0.366562
0.134063 0.125000 0.366562
0.271250 0.125000 0.366562
0.411563 0.125000 0.366562
0.555000 0.125000 0.366562
0.701563 0.125000 0.366562
0.851250 0.125000 0.366562
1.000000 0.125000 0.366562
1.000000 0.125000 0.366562
0.000000 0.250000 0.366562
0.134063 0.250000 0.366562
0.271250 0.250000 0.366562
0.411563 0.250000 0.366562
0.555000 0.250000 0.366562
0.701563 0.250000 0.366562
0.851250 0.250000 0.366562
1.000000 0.250000 0.366562
1.000000 0.250000 0.366562
0.000000 0.375000 0.366562
0.134063 0.375000 0.366562
0.271250 0.375000 0.366562
0.411563 0.375000 0.366562
0.555000 0.375000 0.366562
0.701563 0.375000 0.366562
0.851250 0.375000 0.366562
1.000000 0.375000 0.366562
1.000000 0.375000 0.366562
0.000000 0.500000 0.366562
0.134063 0.500000 0.366562
0.271250 0.500000 0.366562
0.411563 0.500000 0.366562
0.555000 0.500000 0.366562
0.701563 0.500000 0.366562
0.851250 0.500000 0.366562
1.000000 0.500000 0.366562
1.000000 0.500000 0.366562
0.000000 0.625000 0.366562
0.134063 0.625000 0.366562
0.271250 0.625000 0.366562
0.411563 0.625000 0.366562
0.555000 0.625000 0.366562
0.701563 0.625000 0.366562
0.851250 0.625000 0.366562
1.000000 0.625000 0.366562
1.000000 0.625000 0.366562
0.000000 0.750000 0.366562
0.134063 0.750000 0.366562
0.271250 0.750000 0.366562
0.411563 0.750000 0.366562
0.555000 0.750000 0.366562
0.701563 0.750000 0.366562
0.851250 0.750000 0.366562
1.000000 0.750000 0.366562
1.000000 0.750000 0.366562
0.000000 0.875000 0.366562
0.134063 0.875000 0.366562
0.271250 0.875000 0.366562
0.411563 0.875000 0.366562
0.555000 0.875000 0.366562
0.701563 0.875000 0.366562
0.851250 0.875000 0.366562
1.000000 0.875000 0.366562
1.000000 0.875000 0.366562
0.000000 1.000000 0.366562
0.134063 1.000000 0.366562
0.271250 1.000000 0.366562
0.411563 1.000000 0.366562
0.555000 1.000000 0.366562
0.701563 1.000000 0.366562
0.851250 1.000000 0.366562
1.000000 1.000000 0.366562
1.000000 1.000000 0.366562
0.000000 0.000000 0.485000
0.134063 0.000000 0.485000
0.271250 0.000000 0.485000
0.411563 0.000000 0.485000
0.555000 0.000000 0.485000
0.701563 0.000000 0.485000
0.851250 0.000000 0.485000
1.000000 0.000000 0.485000
1.000000 0.000000 0.485000
0.000000 0.125000 0.485000
0.134063 0.125000 0.485000
0.271250 0.125000 0.485000
0.411563 0.125000 0.485000
0.555000 0.125000 0.485000
0.701563 0.125000 0.485000
0.851250 0.125000 0.485000
1.000000 0.125000 0.485000
1.000000 0.125000 0.485000
0.000000 0.250000 0.485000
0.134063 0.250000 0.485000
0.271250 0.250000 0.485000
0.411563 0.250000 0.485000
0.555000 0.250000 0.485000
0.701563 0.250000 0.485000
0.851250 0.250000 0.485000
1.000000 0.250000 0.485000
1.000000 0.250000 0.485000
0.000000 0.375000 0.485000
0.134063 0.375000 0.485000
0.271250 0.375000 0.485000
0.411563 0.375000 0.485000
0.555000 0.375000 0.485000
0.701563 0.375000 0.485000
0.851250 0.375000 0.485000
1.000000 0.375000 0.485000
1.000000 0.375000 0.485000
0.000000 0.500000 0.485000
0.134063 0.500000 0.485000
0.271250 0.500000 0.485000
0.411563 0.500000 0.485000
0.555000 0.500000 0.485000
0.701563 0.500000 0.485000
0.851250 0.500000 0.485000
1.000000 0.500000 0.485000
1.000000 0.500000 0.485000
0.000000 0.625000 0.485000
0.134063 0.625000 0.485000
0.271250 0.625000 0.485000
0.411563 0.625000 0.485000
0.555000 0.625000 0.485000
0.701563 0.625000 0.485000
0.851250 0.625000 0.485000
1.000000 0.625000 0.485000
1.000000 0.625000 0.485000
0.000000 0.750000 0.485000
0.134063 0.750000 0.485000
0.271250 0.750000 0.485000
0.411563 0.750000 0.485000
0.555000 0.750000 0.485000
0.701563 0.750000 0.485000
0.851250 0.750000 0.485000
1.000000 0.750000 0.485000
1.000000 0.750000 0.485000
0.000000 0.875000 0.485000
0.134063 0.875000 0.485000
0.271250 0.875000 0.485000
0.411563 0.875000 0.485000
0.555000 0.875000 0.485000
0.701563 0.875000 0.485000
0.851250 0.875000 0.485000
1.000000 0.875000 0.485000
1.000000 0.875000 0.485000
0.000000 1.000000 0.485000
0.134063 1.000000 0.485000
0.271250 1.000000 0.485000
0.411563 1.000000 0.485000
0.555000 1.000000 0.485000
0.701563 1.000000 0.485000
0.851250 1.000000 0.485000
1.000000 1.000000 0.485000
1.000000 1.000000 0.485000
0.000000 0.000000 0.601562
0.134063 0.000000 0.601562
0.271250 0.000000 0.601562
0.411563 0.000000 0.601562
0.555000 0.000000 0.601562
0.701563 0.000000 0.601562
0.851250 0.000000 0.601562
1.000000 0.000000 0.601562
1.000000 0.000000 0.601562
0.000000 0.125000 0.601562
0.134063 0.125000 0.601562
0.271250 0.125000 0.601562
0.411563 0.125000 0.601562
0.555000 0.125000 0.601562
0.701563 0.125000 0.601562
0.851250 0.125000 0.601562
1.000000 0.125000 0.601562
1.000000 0.125000 0.601562
0.000000 0.250000 0.601562
0.134063 0.250000 0.601562
0.271250 0.250000 0.601562
0.411563 0.250000 0.601562
0.555000 0.250000 0.601562
0.701563 0.250000 0.601562
0.851250 0.250000 0.601562
1.000000 0.250000 0.601562
1.000000 0.250000 0.601562
0.000000 0.375000 0.601562
0.134063 0.375000 0.601562
0.271250 0.375000 0.601562
0.411563 0.375000 0.601562
0.555000 0.375000 0.601562
0.701563 0.375000 0.601562
0.851250 0.375000 0.601562
1.000000 0.375000 0.601562
1.000000 0.375000 0.601562
0.000000 0.500000 0.601562
0.134063 0.500000 0.601562
0.271250 0.500000 0.601562
0.411563 0.500000 0.601562
0.555000 0.500000 0.601562
0.701563 0.500000 0.601562
0.851250 0.500000 0.601562
1.000000 0.500000 0.601562
1.000000 0.500000 0.601562
0.000000 0.625000 0.601562
0.134063 0.625000 0.601562
0.271250 0.625000 0.601562
0.411563 0.625000 0.601562
0.555000 0.625000 0.601562
0.701563 0.625000 0.601562
0.851250 0.625000 0.601562
1.000000 0.625000 0.601562
1.000000 0.625000 0.601562
0.000000 0.750000 0.601562
0.134063 0.750000 0.601562
0.271250 0.750000 0.601562
0.411563 0.750000 0.601562
0.555000 0.750000 0.601562
0.701563 0.750000 0.601562
0.851250 0.750000 0.601562
1.000000 0.750000 0.601562
1.000000 0.750000 0.601562
0.000000 0.875000 0.601562
0.134063 0.875000 0.601562
0.271250 0.875000 0.601562
0.411563 0.875000 0.601562
0.555000 0.875000 0.601562
0.701563 0.875000 0.601562
0.851250 0.875000 0.601562
1.000000 0.875000 0.601562
1.000000 0.875000 0.601562
0.000000 1.000000 0.601562
0.134063 1.000000 0.601562
0.271250 1.000000 0.601562
0.411563 1.000000 0.601562
0.555000 1.000000 0.601562
0.701563 1.000000 0.601562
0.851250 1.000000 0.601562
1.000000 1.000000 0.601562
1.000000 1.000000 0.601562
0.000000 0.000000 0.716250
0.134063 0.000000 0.716250
0.271250 0.000000 0.716250
0.411563 0.000000 0.716250
0.555000 0.000000 0.716250
0.701563 0.000000 0.716250
0.851250 0.000000 0.716250
1.000000 0.000000 0.716250
1.000000 0.000000 0.716250
0.000000 0.125000 0.716250
0.134063 0.125000 0.716250
0.271250 0.125000 0.716250
0.411563 0.125000 0.716250
0.555000 0.125000 0.716250
0.701563 0.125000 0.716250
0.851250 0.125000 0.716250
1.000000 0.125000 0.716250
1.000000 0.125000 0.716250
0.000000 0.250000 0.716250
0.134063 0.250000 0.716250
0.271250 0.250000 0.716250
0.411563 0.250000 0.716250
0.555000 0.250000 0.716250
0.701563 0.250000 0.716250
0.851250 0.250000 0.716250
1.000000 0.250000 0.716250
1.000000 0.250000 0.716250
0.000000 0.375000 0.716250
0.134063 0.375000 0.716250
0.271250 0.375000 0.716250
0.411563 0.375000 0.716250
0.555000 0.375000 0.716250
0.701563 0.375000 0.716250
0.851250 0.375000 0.716250
1.000000 0.375000 0.716250
1.000000 0.375000 0.716250
0.000000 0.500000 0.716250
0.134063 0.500000 0.716250
0.271250 0.500000 0.716250
0.411563 0.500000 0.716250
0.555000 0.500000 0.716250
0.701563 0.500000 0.716250
0.851250 0.500000 0.716250
1.000000 0.500000 0.716250
1.000000 0.500000 0.716250
0.000000 0.625000 0.716250
0.134063 0.625000 0.716250
0.271250 0.625000 0.716250
0.411563 0.625000 0.716250
0.555000 0.625000 0.716250
0.701563 0.625000 0.716250
0.851250 0.625000 0.716250
1.000000 0.625000 0.716250
1.000000 0.625000 0.716250
0.000000 0.750000 0.716250
0.134063 0.750000 0.716250
0.271250 0.750000 0.716250
0.411563 0.750000 0.716250
0.555000 0.750000 0.716250
0.701563 0.750000 0.716250
0.851250 0.750000 0.716250
1.000000 0.750000 0.716250
1.000000 0.750000 0.716250
0.000000 0.875000 0.716250
0.134063 0.875000 0.716250
0.271250 0.875000 0.716250
0.411563 0.875000 0.716250
0.555000 0.875000 0.716250
0.701563 0.875000 0.716250
0.851250 0.875000 0.716250
1.000000 0.875000 0.716250
1.000000 0.875000 0.716250
0.000000 1.000000 0.716250
0.134063 1.000000 0.716250
0.271250 1.000000 0.716250
0.411563 1.000000 0.716250
0.555000 1.000000 0.716250
0.701563 1.000000 0.716250
0.851250 1.000000 0.716250
1.000000 1.000000 0.716250
1.000000 1.000000 0.716250
0.000000 0.000000 0.829062
0.134063 0.000000 0.829062
0.271250 0.000000 0.829062
0.411563 0.000000 0.829062
0.555000 0.000000 0.829062
0.701563 0.000000 0.829062
0.851250 0.000000 0.829062
1.000000 0.000000 0.829062
1.000000 0.000000 0.829062
0.000000 0.125000 0.829062
0.134063 0.125000 0.829062
0.271250 0.125000 0.829062
0.411563 0.125000 0.829062
0.555000 0.125000 0.829062
0.701563 0.125000 0.829062
0.851250 0.125000 0.829062
1.000000 0.125000 0.829062
1.000000 0.125000 0.829062
0.000000 0.250000 0.829062
0.134063 0.250000 0.829062
0.271250 0.250000 0.829062
0.411563 0.250000 0.829062
0.555000 0.250000 0.829062
0.701563 0.250000 0.829062
0.851250 0.250000 0.829062
1.000000 0.250000 0.829062
1.000000 0.250000 0.829062
0.000000 0.375000 0.829062
0.134063 0.375000 0.829062
0.271250 0.375000 0.829062
0.411563 0.375000 0.829062
0.555000 0.375000 0.829062
0.701563 0.375000 0.829062
0.851250 0.375000 0.829062
1.000000 0.375000 0.829062
1.000000 0.375000 0.829062
0.000000 0.500000 0.829062
0.134063 0.500000 0.829062
0.271250 0.500000 0.829062
0.411563 0.500000 0.829062
0.555000 0.500000 0.829062
0.701563 0.500000 0.829062
0.851250 0.500000 0.829062
1.000000 0.500000 0.829062
1.000000 0.500000 0.829062
0.000000 0.625000 0.829062
0.134063 0.625000 0.829062
0.271250 0.625000 0.829062
0.411563 0.625000 0.829062
0.555000 0.625000 0.829062
0.701563 0.625000 0.829062
0.851250 0.625000 0.829062
1.000000 0.625000 0.829062
1.000000 0.625000 0.829062
0.000000 0.750000 0.829062
0.134063 0.750000 0.829062
0.271250 0.750000 0.829062
0.411563 0.750000 0.829062
0.555000 0.750000 0.829062
0.701563 0.750000 0.829062
0.851250 0.750000 0.829062
1.000000 0.750000 0.829062
1.000000 0.750000 0.829062
0.000000 0.875000 0.829062
0.134063 0.875000 0.829062
0.271250 0.875000 0.829062
0.411563 0.875000 0.829062
0.555000 0.875000 0.829062
0.701563 0.875000 0.829062
0.851250 0.875000 0.829062
1.000000 0.875000 0.829062
1.000000 0.875000 0.829062
0.000000 1.000000 0.829062
0.134063 1.000000 0.829062
0.271250 1.000000 0.829062
0.411563 1.000000 0.829062
0.555000 1.000000 0.829062
0.701563 1.000000 0.829062
0.851250 1.000000 0.829062
1.000000 1.000000 0.829062
1.000000 1.000000 0.829062
0.000000 0.000000 0.940000
0.134063 0.000000 0.940000
0.271250 0.000000 0.940000
0.411563 0.000000 0.940000
0.555000 0.000000 0.940000
0.701563 0.000000 0.940000
0.851250 0.000000 0.940000
1.000000 0.000000 0.940000
1.000000 0.000000 0.940000
0.000000 0.125000 0.940000
0.134063 0.125000 0.940000
0.271250 0.125000 0.940000
0.411563 0.125000 0.940000
0.555000 0.125000 0.940000
0.701563 0.125000 0.940000
0.851250 0.125000 0.940000
1.000000 0.125000 0.940000
1.000000 0.125000 0.940000
0.000000 0.250000 0.940000
0.134063 0.250000 0.940000
0.271250 0.250000 0.940000
0.411563 0.250000 0.940000
0.555000 0.250000 0.940000
0.701563 0.250000 0.940000
0.851250 0.250000 0.940000
1.000000 0.250000 0.940000
1.000000 0.250000 0.940000
0.000000 0.375000 0.940000
0.134063 0.375000 0.940000
0.271250 0.375000 0.940000
0.411563 0.375000 0.940000
0.555000 0.375000 0.940000
0.701563 0.375000 0.940000
0.851250 0.375000 0.940000
1.000000 0.375000 0.940000
1.000000 0.375000 0.940000
0.000000 0.500000 0.940000
0.134063 0.500000 0.940000
0.271250 0.500000 0.940000
0.411563 0.500000 0.940000
0.555000 0.500000 0.940000
0.701563 0.500000 0.940000
0.851250 0.500000 0.940000
1.000000 0.500000 0.940000
1.000000 0.500000 0.940000
0.000000 0.625000 0.940000
0.134063 0.625000 0.940000
0.271250 0.625000 0.940000
0.411563 0.625000 0.940000
0.555000 0.625000 0.940000
0.701563 0.625000 0.940000
0.851250 0.625000 0.940000
1.000000 0.625000 0.940000
1.000000 0.625000 0.940000
0.000000 0.750000 0.940000
0.134063 0.750000 0.940000
0.271250 0.750000 0.940000
0.411563 0.750000 0.940000
0.555000 0.750000 0.940000
0.701563 0.750000 0.940000
0.851250 0.750000 0.940000
1.000000 0.750000 0.940000
1.000000 0.750000 0.940000
0.000000 0.875000 0.940000
0.134063 0.875000 0.940000
0.271250 0.875000 0.940000
0.411563 0.875000 0.940000
0.555000 0.875000 0.940000
0.701563 0.875000 0.940000
0.851250 0.875000 0.940000
1.000000 0.875000 0.940000
1.000000 0.875000 0.940000
0.000000 1.000000 0.940000
0.134063 1.000000 0.940000
0.271250 1.000000 0.940000
0.411563 1.000000 0.940000
0.555000 1.000000 0.940000
0.701563 1.000000 0.940000
0.851250 1.000000 0.940000
1.000000 1.000000 0.940000
1.000000 1.000000 0.940000
